SynthDef(\hihatElectro, {
	arg out = 0, pan = 0, amp = 0.3, att = 0.001, rel = 0.3, curve = -8, filterFreq = 4010, rq = 0.56;

	var env, snd;

	// noise -> resonance -> exponential dec envelope
	env = Env.perc(attackTime: att, releaseTime: rel, curve: curve).kr(doneAction: 2);

	snd = ClipNoise.ar(amp);
	snd = BPF.ar(
		in: snd,
		freq: [1, 1.035] * filterFreq,
		rq: [0.27, 1] * rq,
		mul: [1.0, 0.6]
	);
	snd = Mix(snd) * env;

	Out.ar(out, Pan2.ar(snd, pan));

}).add;